src/pages/elements/pictograms/images/11_Gradients_5_dont.svg

<?xml version="1.0" encoding="UTF-8"?>
<svg width="288px" height="288px" viewBox="0 0 288 288" version="1.1" xmlns="http://www.w3.org/2000/svg" xmlns:xlink="http://www.w3.org/1999/xlink">
    <!-- Generator: Sketch 52.4 (67378) - http://www.bohemiancoding.com/sketch -->
    <title>Artboard</title>
    <desc>Created with Sketch.</desc>
    <defs>
        <path d="M17.25,30.2795 C16.45075,31.1075 16.468,32.407 17.2845,33.21775 C18.101,34.01125 19.412,33.994 20.2055,33.1775 C36.42625,16.583 57.41375,7.82 80.91975,7.82 L81.24175,7.82 C103.31025,7.89475 125.074,17.24425 140.96125,33.465 C141.36375,33.88475 141.8985,34.09175 142.43325,34.09175 C142.9565,34.09175 143.47975,33.89625 143.88225,33.49375 C144.7045,32.70025 144.716,31.38925 143.9225,30.57275 C127.26475,13.56425 104.42,3.75475 81.259,3.67425 C56.52825,3.81225 34.34475,12.79375 17.25,30.2795 M8.21675,65.73975 C7.58425,66.7 7.84875,67.98225 8.809,68.61475 C9.154,68.839 9.55075,68.954 9.94175,68.954 C10.6145,68.954 11.27575,68.6205 11.6725,68.0225 C23.59225,49.933 43.67125,25.88075 80.31025,25.88075 C105.7195,25.88075 129.2485,38.56525 143.24975,59.823 C143.8765,60.766 145.15875,61.0305 146.11325,60.4095 C147.06775,59.777 147.33225,58.49475 146.7055,57.54025 C131.93375,35.12675 107.11675,21.74075 80.31025,21.74075 C41.67025,21.74075 20.65975,46.851 8.21675,65.73975 M31.74,64.8715 C30.636,66.24575 29.4285,67.85 28.1175,69.598 C22.3215,77.326 14.375,87.91175 4.96225,91.724 C3.8985,92.161 3.3925,93.36275 3.818,94.42075 C4.255,95.4845 5.45675,95.99625 6.51475,95.565 C16.997,91.31575 25.34025,80.19525 31.4295,72.07625 C32.71175,70.38 33.8905,68.81025 34.96575,67.4705 C44.781,55.22875 56.36725,43.286 80.31025,43.286 C112.01,43.286 131.629,67.07375 131.629,89.1135 C131.629,98.92875 130.63425,103.293 129.6625,107.5135 C128.75975,111.4695 127.89725,115.20125 127.89725,122.61875 C127.89725,134.50975 130.4215,142.4965 143.29,148.097 C143.56025,148.21775 143.83625,148.2695 144.118,148.2695 C144.9115,148.2695 145.67625,147.80375 146.00975,147.0275 C146.46975,145.97525 145.9925,144.7505 144.94025,144.302 C135.17675,140.047 132.043,134.78 132.043,122.61875 C132.043,115.667 132.848,112.1595 133.699,108.43925 C134.67075,104.2015 135.77475,99.3945 135.77475,89.1135 C135.77475,65.0785 114.56875,39.14025 80.31025,39.14025 C54.533,39.14025 42.182,51.8535 31.74,64.8715 M41.86575,81.48325 C32.25175,97.7615 18.47475,110.446 5.01975,115.41975 C3.9445,115.82225 3.404,117.0125 3.795,118.082 C4.1975,119.15725 5.38775,119.692 6.45725,119.30675 C27.094,111.6765 40.58925,91.78725 45.425,83.5935 C50.46775,75.0605 61.70325,60.7545 80.31025,60.7545 C102.3845,60.7545 114.149,79.8905 114.149,93.70775 C114.149,101.3955 112.87825,107.45025 111.64775,113.3095 C110.607,118.26025 109.6295,122.9465 109.6295,127.926 C109.6295,139.426 113.597,154.69225 132.47425,162.1155 C132.7215,162.21325 132.98025,162.265 133.23325,162.265 C134.0555,162.265 134.8375,161.76475 135.1595,160.94825 C135.5735,159.8845 135.05025,158.677 133.99225,158.263 C117.277,151.6965 113.7695,138.138 113.7695,127.926 C113.7695,123.372 114.70675,118.8985 115.7015,114.1605 C116.91475,108.376 118.289,101.821 118.289,93.70775 C118.289,75.79075 103.0285,56.60875 80.31025,56.60875 C59.6505,56.60875 47.357,72.19125 41.86575,81.48325 M149.56325,69.67275 C148.52825,70.1615 148.07975,71.392 148.56275,72.427 C152.628,81.10375 153.1915,88.6995 153.1915,95.611 C153.1915,108.33575 149.97725,120.62925 144.80225,127.7075 C144.1295,128.63325 144.33075,129.927 145.25075,130.6055 C145.61875,130.87575 146.05,131.00225 146.46975,131.00225 C147.108,131.00225 147.73475,130.709 148.143,130.15125 C153.8125,122.406 157.33725,109.16375 157.33725,95.611 C157.33725,88.573 156.7335,80.109 152.3175,70.67325 C151.961,69.92 151.21925,69.4715 150.443,69.4715 C150.14975,69.4715 149.845,69.53475 149.56325,69.67275 M52.3365,98.0145 C48.67375,103.51725 45.21225,108.71525 41.561,112.28025 C31.096,122.5095 20.13075,128.66775 7.90625,135.102 C6.89425,135.63675 6.50325,136.87875 7.038,137.90225 C7.567,138.9085 8.82625,139.2995 9.8325,138.76475 C22.35025,132.17525 33.5915,125.86175 44.45325,115.24725 C48.415,111.37175 51.9915,105.9955 55.78075,100.30875 C62.97975,89.5045 70.4145,78.33225 80.31025,78.33225 C91.448,78.33225 97.45675,87.78525 97.45675,96.68625 C97.45675,111.2855 85.813,124.6025 78.8785,131.24375 C65.68225,143.865 52.5435,154.30125 36.3055,165.07675 C35.35675,165.7035 35.09225,166.9915 35.719,167.946 C36.1215,168.54975 36.777,168.87175 37.44975,168.87175 C37.84075,168.87175 38.24325,168.7625 38.594,168.52675 C55.0505,157.61325 68.356,147.03325 81.73625,134.23375 C89.15375,127.144 101.591,112.8265 101.591,96.68625 C101.591,85.63475 93.62725,74.1865 80.31025,74.1865 C68.20075,74.1865 60.1335,86.3075 52.3365,98.0145 M78.59675,97.29 C64.9635,122.889 39.6865,142.0595 20.884,153.63425 C19.91225,154.23225 19.6075,155.50875 20.2055,156.4805 C20.5965,157.113 21.28075,157.4695 21.97075,157.4695 C22.3445,157.4695 22.71825,157.37175 23.0575,157.159 C42.29125,145.31975 68.17775,125.649 82.248,99.2335 C82.7885,98.22725 82.409,96.97375 81.397,96.43325 C81.0865,96.2665 80.753,96.186 80.42525,96.186 C79.6835,96.186 78.9705,96.5885 78.59675,97.29 M93.6675,134.6075 C92.345,137.92525 91.55725,142.2665 91.55725,146.1995 C91.55725,156.94625 98.42275,167.82525 109.4685,174.5815 C109.80775,174.7885 110.17575,174.892 110.5495,174.892 C111.24525,174.892 111.92375,174.54125 112.31475,173.89725 C112.91275,172.9255 112.608,171.65475 111.6305,171.05675 C101.8095,165.0365 95.69725,155.5145 95.69725,146.1995 C95.69725,143.543 96.1745,139.5065 97.51425,136.13125 C97.934,135.0675 97.4165,133.8715 96.3585,133.44025 C96.11125,133.34825 95.85825,133.30225 95.60525,133.30225 C94.77725,133.30225 93.9895,133.78525 93.6675,134.6075 M52.51475,173.0405 C51.8765,173.9835 52.1295,175.27725 53.0725,175.9155 C54.02125,176.5365 55.30925,176.30075 55.9475,175.352 C60.605,168.452 65.01525,164.17975 72.611,164.17975 C80.87375,164.17975 85.30125,171.5685 85.92225,178.43975 C86.02,179.515 86.92275,180.32 87.9865,180.32 C88.044,180.32 88.10725,180.31425 88.1705,180.3085 C89.309,180.21075 90.1485,179.2045 90.045,178.066 C89.26875,169.3835 83.47275,160.034 72.611,160.034 C62.66925,160.034 57.0745,166.28425 52.51475,173.0405" id="path-1"></path>
        <linearGradient x1="20.8379642%" y1="93.1256775%" x2="78.3022587%" y2="6.54039387%" id="linearGradient-3">
            <stop stop-color="#BD1250" offset="0%"></stop>
            <stop stop-color="#00812E" offset="100%"></stop>
        </linearGradient>
    </defs>
    <g id="Artboard" stroke="none" stroke-width="1" fill="none" fill-rule="evenodd">
        <rect id="Rectangle-3-Copy-45" fill="#FFFFFF" x="0" y="0" width="288" height="288"></rect>
        <g id="Group-5-Copy" transform="translate(52.000000, 52.000000)">
            <polygon id="Fill-1" points="0 184 184 184 184 0 0 0"></polygon>
            <g id="Group-4" transform="translate(11.500000, 0.000000)">
                <mask id="mask-2" fill="white">
                    <use xlink:href="#path-1"></use>
                </mask>
                <g id="Clip-3"></g>
                <path d="M17.25,30.2795 C16.45075,31.1075 16.468,32.407 17.2845,33.21775 C18.101,34.01125 19.412,33.994 20.2055,33.1775 C36.42625,16.583 57.41375,7.82 80.91975,7.82 L81.24175,7.82 C103.31025,7.89475 125.074,17.24425 140.96125,33.465 C141.36375,33.88475 141.8985,34.09175 142.43325,34.09175 C142.9565,34.09175 143.47975,33.89625 143.88225,33.49375 C144.7045,32.70025 144.716,31.38925 143.9225,30.57275 C127.26475,13.56425 104.42,3.75475 81.259,3.67425 C56.52825,3.81225 34.34475,12.79375 17.25,30.2795 M8.21675,65.73975 C7.58425,66.7 7.84875,67.98225 8.809,68.61475 C9.154,68.839 9.55075,68.954 9.94175,68.954 C10.6145,68.954 11.27575,68.6205 11.6725,68.0225 C23.59225,49.933 43.67125,25.88075 80.31025,25.88075 C105.7195,25.88075 129.2485,38.56525 143.24975,59.823 C143.8765,60.766 145.15875,61.0305 146.11325,60.4095 C147.06775,59.777 147.33225,58.49475 146.7055,57.54025 C131.93375,35.12675 107.11675,21.74075 80.31025,21.74075 C41.67025,21.74075 20.65975,46.851 8.21675,65.73975 M31.74,64.8715 C30.636,66.24575 29.4285,67.85 28.1175,69.598 C22.3215,77.326 14.375,87.91175 4.96225,91.724 C3.8985,92.161 3.3925,93.36275 3.818,94.42075 C4.255,95.4845 5.45675,95.99625 6.51475,95.565 C16.997,91.31575 25.34025,80.19525 31.4295,72.07625 C32.71175,70.38 33.8905,68.81025 34.96575,67.4705 C44.781,55.22875 56.36725,43.286 80.31025,43.286 C112.01,43.286 131.629,67.07375 131.629,89.1135 C131.629,98.92875 130.63425,103.293 129.6625,107.5135 C128.75975,111.4695 127.89725,115.20125 127.89725,122.61875 C127.89725,134.50975 130.4215,142.4965 143.29,148.097 C143.56025,148.21775 143.83625,148.2695 144.118,148.2695 C144.9115,148.2695 145.67625,147.80375 146.00975,147.0275 C146.46975,145.97525 145.9925,144.7505 144.94025,144.302 C135.17675,140.047 132.043,134.78 132.043,122.61875 C132.043,115.667 132.848,112.1595 133.699,108.43925 C134.67075,104.2015 135.77475,99.3945 135.77475,89.1135 C135.77475,65.0785 114.56875,39.14025 80.31025,39.14025 C54.533,39.14025 42.182,51.8535 31.74,64.8715 M41.86575,81.48325 C32.25175,97.7615 18.47475,110.446 5.01975,115.41975 C3.9445,115.82225 3.404,117.0125 3.795,118.082 C4.1975,119.15725 5.38775,119.692 6.45725,119.30675 C27.094,111.6765 40.58925,91.78725 45.425,83.5935 C50.46775,75.0605 61.70325,60.7545 80.31025,60.7545 C102.3845,60.7545 114.149,79.8905 114.149,93.70775 C114.149,101.3955 112.87825,107.45025 111.64775,113.3095 C110.607,118.26025 109.6295,122.9465 109.6295,127.926 C109.6295,139.426 113.597,154.69225 132.47425,162.1155 C132.7215,162.21325 132.98025,162.265 133.23325,162.265 C134.0555,162.265 134.8375,161.76475 135.1595,160.94825 C135.5735,159.8845 135.05025,158.677 133.99225,158.263 C117.277,151.6965 113.7695,138.138 113.7695,127.926 C113.7695,123.372 114.70675,118.8985 115.7015,114.1605 C116.91475,108.376 118.289,101.821 118.289,93.70775 C118.289,75.79075 103.0285,56.60875 80.31025,56.60875 C59.6505,56.60875 47.357,72.19125 41.86575,81.48325 M149.56325,69.67275 C148.52825,70.1615 148.07975,71.392 148.56275,72.427 C152.628,81.10375 153.1915,88.6995 153.1915,95.611 C153.1915,108.33575 149.97725,120.62925 144.80225,127.7075 C144.1295,128.63325 144.33075,129.927 145.25075,130.6055 C145.61875,130.87575 146.05,131.00225 146.46975,131.00225 C147.108,131.00225 147.73475,130.709 148.143,130.15125 C153.8125,122.406 157.33725,109.16375 157.33725,95.611 C157.33725,88.573 156.7335,80.109 152.3175,70.67325 C151.961,69.92 151.21925,69.4715 150.443,69.4715 C150.14975,69.4715 149.845,69.53475 149.56325,69.67275 M52.3365,98.0145 C48.67375,103.51725 45.21225,108.71525 41.561,112.28025 C31.096,122.5095 20.13075,128.66775 7.90625,135.102 C6.89425,135.63675 6.50325,136.87875 7.038,137.90225 C7.567,138.9085 8.82625,139.2995 9.8325,138.76475 C22.35025,132.17525 33.5915,125.86175 44.45325,115.24725 C48.415,111.37175 51.9915,105.9955 55.78075,100.30875 C62.97975,89.5045 70.4145,78.33225 80.31025,78.33225 C91.448,78.33225 97.45675,87.78525 97.45675,96.68625 C97.45675,111.2855 85.813,124.6025 78.8785,131.24375 C65.68225,143.865 52.5435,154.30125 36.3055,165.07675 C35.35675,165.7035 35.09225,166.9915 35.719,167.946 C36.1215,168.54975 36.777,168.87175 37.44975,168.87175 C37.84075,168.87175 38.24325,168.7625 38.594,168.52675 C55.0505,157.61325 68.356,147.03325 81.73625,134.23375 C89.15375,127.144 101.591,112.8265 101.591,96.68625 C101.591,85.63475 93.62725,74.1865 80.31025,74.1865 C68.20075,74.1865 60.1335,86.3075 52.3365,98.0145 M78.59675,97.29 C64.9635,122.889 39.6865,142.0595 20.884,153.63425 C19.91225,154.23225 19.6075,155.50875 20.2055,156.4805 C20.5965,157.113 21.28075,157.4695 21.97075,157.4695 C22.3445,157.4695 22.71825,157.37175 23.0575,157.159 C42.29125,145.31975 68.17775,125.649 82.248,99.2335 C82.7885,98.22725 82.409,96.97375 81.397,96.43325 C81.0865,96.2665 80.753,96.186 80.42525,96.186 C79.6835,96.186 78.9705,96.5885 78.59675,97.29 M93.6675,134.6075 C92.345,137.92525 91.55725,142.2665 91.55725,146.1995 C91.55725,156.94625 98.42275,167.82525 109.4685,174.5815 C109.80775,174.7885 110.17575,174.892 110.5495,174.892 C111.24525,174.892 111.92375,174.54125 112.31475,173.89725 C112.91275,172.9255 112.608,171.65475 111.6305,171.05675 C101.8095,165.0365 95.69725,155.5145 95.69725,146.1995 C95.69725,143.543 96.1745,139.5065 97.51425,136.13125 C97.934,135.0675 97.4165,133.8715 96.3585,133.44025 C96.11125,133.34825 95.85825,133.30225 95.60525,133.30225 C94.77725,133.30225 93.9895,133.78525 93.6675,134.6075 M52.51475,173.0405 C51.8765,173.9835 52.1295,175.27725 53.0725,175.9155 C54.02125,176.5365 55.30925,176.30075 55.9475,175.352 C60.605,168.452 65.01525,164.17975 72.611,164.17975 C80.87375,164.17975 85.30125,171.5685 85.92225,178.43975 C86.02,179.515 86.92275,180.32 87.9865,180.32 C88.044,180.32 88.10725,180.31425 88.1705,180.3085 C89.309,180.21075 90.1485,179.2045 90.045,178.066 C89.26875,169.3835 83.47275,160.034 72.611,160.034 C62.66925,160.034 57.0745,166.28425 52.51475,173.0405" id="Fill-2" fill="url(#linearGradient-3)" mask="url(#mask-2)"></path>
            </g>
        </g>
    </g>
</svg>

<svg xmlns="http://www.w3.org/2000/svg" xmlns:xlink="http://www.w3.org/1999/xlink" viewBox="0 0 288 288"><defs><linearGradient x1="20.838%" y1="93.126%" x2="78.302%" y2="6.54%" id="b"><stop stop-color="#BD1250" offset="0%"/><stop stop-color="#00812E" offset="100%"/></linearGradient><path d="M17.25 30.28c-.8.828-.782 2.127.035 2.938a2.069 2.069 0 002.92-.04C36.427 16.583 57.415 7.82 80.92 7.82h.322c22.068.075 43.832 9.424 59.72 25.645.402.42.937.627 1.471.627a2.04 2.04 0 001.45-.598 2.063 2.063 0 00.04-2.921C127.265 13.564 104.42 3.755 81.259 3.674c-24.73.138-46.914 9.12-64.009 26.605M8.217 65.74a2.071 2.071 0 103.455 2.283c11.92-18.089 32-42.141 68.638-42.141 25.41 0 48.939 12.684 62.94 33.942a2.082 2.082 0 002.863.587 2.076 2.076 0 00.593-2.87c-14.772-22.413-39.59-35.8-66.396-35.8-38.64 0-59.65 25.111-72.093 44m23.523-.868c-1.104 1.374-2.311 2.978-3.622 4.726-5.796 7.728-13.743 18.314-23.156 22.126a2.07 2.07 0 101.552 3.841c10.483-4.25 18.826-15.37 24.916-23.489 1.282-1.696 2.46-3.266 3.536-4.605C44.78 55.228 56.367 43.285 80.31 43.285c31.7 0 51.319 23.788 51.319 45.828 0 9.815-.995 14.179-1.966 18.4-.903 3.956-1.766 7.687-1.766 15.105 0 11.89 2.525 19.877 15.393 25.478a2.063 2.063 0 002.72-1.07 2.06 2.06 0 00-1.07-2.725c-9.763-4.255-12.897-9.522-12.897-21.683 0-6.952.805-10.46 1.656-14.18.972-4.237 2.076-9.044 2.076-19.325 0-24.035-21.206-49.974-55.465-49.974-25.777 0-38.128 12.713-48.57 25.731m10.126 16.612C32.252 97.761 18.475 110.446 5.02 115.42a2.08 2.08 0 00-1.225 2.662 2.084 2.084 0 002.662 1.225c20.637-7.63 34.132-27.52 38.968-35.713 5.043-8.533 16.278-22.84 34.885-22.84 22.075 0 33.839 19.137 33.839 32.954 0 7.688-1.27 13.742-2.501 19.602-1.041 4.95-2.019 9.636-2.019 14.616 0 11.5 3.968 26.766 22.845 34.19.248.097.506.149.76.149.821 0 1.603-.5 1.925-1.317a2.078 2.078 0 00-1.167-2.685c-16.715-6.567-20.222-20.125-20.222-30.337 0-4.554.937-9.028 1.931-13.766 1.214-5.784 2.588-12.339 2.588-20.452 0-17.917-15.26-37.1-37.979-37.1-20.66 0-32.953 15.583-38.444 24.875m107.697-11.81a2.077 2.077 0 00-1 2.754c4.065 8.677 4.629 16.272 4.629 23.184 0 12.725-3.215 25.018-8.39 32.096a2.08 2.08 0 00.449 2.899c.368.27.799.396 1.219.396.638 0 1.265-.293 1.673-.85 5.67-7.746 9.194-20.988 9.194-34.541 0-7.038-.603-15.502-5.02-24.938a2.081 2.081 0 00-1.874-1.201 2.02 2.02 0 00-.88.2M52.337 98.016c-3.663 5.502-7.125 10.7-10.776 14.265-10.465 10.23-21.43 16.388-33.655 22.822a2.07 2.07 0 101.926 3.663c12.518-6.59 23.76-12.903 34.621-23.518 3.962-3.875 7.538-9.251 11.328-14.938 7.199-10.805 14.634-21.977 24.53-21.977 11.137 0 17.146 9.453 17.146 18.354 0 14.6-11.644 27.916-18.578 34.558-13.197 12.621-26.336 23.057-42.574 33.833a2.078 2.078 0 00-.586 2.869 2.07 2.07 0 001.73.926c.392 0 .794-.11 1.145-.345 16.456-10.914 29.762-21.494 43.142-34.293 7.418-7.09 19.855-21.408 19.855-37.548 0-11.051-7.964-22.5-21.28-22.5-12.11 0-20.178 12.121-27.975 23.828m26.26-.724c-13.633 25.599-38.91 44.77-57.712 56.344a2.071 2.071 0 102.174 3.525c19.233-11.84 45.12-31.51 59.19-57.925a2.065 2.065 0 00-.851-2.8 2.051 2.051 0 00-.972-.248 2.07 2.07 0 00-1.828 1.104m15.07 37.317c-1.322 3.318-2.11 7.66-2.11 11.593 0 10.746 6.866 21.625 17.912 28.382a2.058 2.058 0 002.846-.684 2.061 2.061 0 00-.685-2.841c-9.82-6.02-15.933-15.542-15.933-24.857 0-2.657.477-6.694 1.817-10.069a2.08 2.08 0 00-1.155-2.69 2.153 2.153 0 00-.754-.139c-.828 0-1.615.483-1.938 1.305m-41.152 38.434a2.077 2.077 0 00.557 2.875c.95.62 2.237.385 2.875-.564 4.658-6.9 9.068-11.172 16.664-11.172 8.263 0 12.69 7.388 13.311 14.26.098 1.075 1 1.88 2.065 1.88.057 0 .12-.006.184-.011a2.061 2.061 0 001.874-2.243c-.776-8.683-6.572-18.032-17.434-18.032-9.942 0-15.537 6.25-20.096 13.007" id="a"/></defs><g fill="none" fill-rule="evenodd"><path fill="#FFF" d="M0 0h288v288H0z"/><path d="M52 236h184V52H52z"/><g transform="translate(63.5 52)"><mask id="c" fill="#fff"><use xlink:href="#a"/></mask><path d="M17.25 30.28c-.8.828-.782 2.127.035 2.938a2.069 2.069 0 002.92-.04C36.427 16.583 57.415 7.82 80.92 7.82h.322c22.068.075 43.832 9.424 59.72 25.645.402.42.937.627 1.471.627a2.04 2.04 0 001.45-.598 2.063 2.063 0 00.04-2.921C127.265 13.564 104.42 3.755 81.259 3.674c-24.73.138-46.914 9.12-64.009 26.605M8.217 65.74a2.071 2.071 0 103.455 2.283c11.92-18.089 32-42.141 68.638-42.141 25.41 0 48.939 12.684 62.94 33.942a2.082 2.082 0 002.863.587 2.076 2.076 0 00.593-2.87c-14.772-22.413-39.59-35.8-66.396-35.8-38.64 0-59.65 25.111-72.093 44m23.523-.868c-1.104 1.374-2.311 2.978-3.622 4.726-5.796 7.728-13.743 18.314-23.156 22.126a2.07 2.07 0 101.552 3.841c10.483-4.25 18.826-15.37 24.916-23.489 1.282-1.696 2.46-3.266 3.536-4.605C44.78 55.228 56.367 43.285 80.31 43.285c31.7 0 51.319 23.788 51.319 45.828 0 9.815-.995 14.179-1.966 18.4-.903 3.956-1.766 7.687-1.766 15.105 0 11.89 2.525 19.877 15.393 25.478a2.063 2.063 0 002.72-1.07 2.06 2.06 0 00-1.07-2.725c-9.763-4.255-12.897-9.522-12.897-21.683 0-6.952.805-10.46 1.656-14.18.972-4.237 2.076-9.044 2.076-19.325 0-24.035-21.206-49.974-55.465-49.974-25.777 0-38.128 12.713-48.57 25.731m10.126 16.612C32.252 97.761 18.475 110.446 5.02 115.42a2.08 2.08 0 00-1.225 2.662 2.084 2.084 0 002.662 1.225c20.637-7.63 34.132-27.52 38.968-35.713 5.043-8.533 16.278-22.84 34.885-22.84 22.075 0 33.839 19.137 33.839 32.954 0 7.688-1.27 13.742-2.501 19.602-1.041 4.95-2.019 9.636-2.019 14.616 0 11.5 3.968 26.766 22.845 34.19.248.097.506.149.76.149.821 0 1.603-.5 1.925-1.317a2.078 2.078 0 00-1.167-2.685c-16.715-6.567-20.222-20.125-20.222-30.337 0-4.554.937-9.028 1.931-13.766 1.214-5.784 2.588-12.339 2.588-20.452 0-17.917-15.26-37.1-37.979-37.1-20.66 0-32.953 15.583-38.444 24.875m107.697-11.81a2.077 2.077 0 00-1 2.754c4.065 8.677 4.629 16.272 4.629 23.184 0 12.725-3.215 25.018-8.39 32.096a2.08 2.08 0 00.449 2.899c.368.27.799.396 1.219.396.638 0 1.265-.293 1.673-.85 5.67-7.746 9.194-20.988 9.194-34.541 0-7.038-.603-15.502-5.02-24.938a2.081 2.081 0 00-1.874-1.201 2.02 2.02 0 00-.88.2M52.337 98.016c-3.663 5.502-7.125 10.7-10.776 14.265-10.465 10.23-21.43 16.388-33.655 22.822a2.07 2.07 0 101.926 3.663c12.518-6.59 23.76-12.903 34.621-23.518 3.962-3.875 7.538-9.251 11.328-14.938 7.199-10.805 14.634-21.977 24.53-21.977 11.137 0 17.146 9.453 17.146 18.354 0 14.6-11.644 27.916-18.578 34.558-13.197 12.621-26.336 23.057-42.574 33.833a2.078 2.078 0 00-.586 2.869 2.07 2.07 0 001.73.926c.392 0 .794-.11 1.145-.345 16.456-10.914 29.762-21.494 43.142-34.293 7.418-7.09 19.855-21.408 19.855-37.548 0-11.051-7.964-22.5-21.28-22.5-12.11 0-20.178 12.121-27.975 23.828m26.26-.724c-13.633 25.599-38.91 44.77-57.712 56.344a2.071 2.071 0 102.174 3.525c19.233-11.84 45.12-31.51 59.19-57.925a2.065 2.065 0 00-.851-2.8 2.051 2.051 0 00-.972-.248 2.07 2.07 0 00-1.828 1.104m15.07 37.317c-1.322 3.318-2.11 7.66-2.11 11.593 0 10.746 6.866 21.625 17.912 28.382a2.058 2.058 0 002.846-.684 2.061 2.061 0 00-.685-2.841c-9.82-6.02-15.933-15.542-15.933-24.857 0-2.657.477-6.694 1.817-10.069a2.08 2.08 0 00-1.155-2.69 2.153 2.153 0 00-.754-.139c-.828 0-1.615.483-1.938 1.305m-41.152 38.434a2.077 2.077 0 00.557 2.875c.95.62 2.237.385 2.875-.564 4.658-6.9 9.068-11.172 16.664-11.172 8.263 0 12.69 7.388 13.311 14.26.098 1.075 1 1.88 2.065 1.88.057 0 .12-.006.184-.011a2.061 2.061 0 001.874-2.243c-.776-8.683-6.572-18.032-17.434-18.032-9.942 0-15.537 6.25-20.096 13.007" fill="url(#b)" mask="url(#c)"/></g></g></svg>
